symbols/web/pause/materialsymbolsrounded/pause_wght500gradN25fill1_48px.svg

<svg xmlns="http://www.w3.org/2000/svg" height="48" width="48"><path d="M29.6 38.35q-1.4 0-2.35-.975-.95-.975-.95-2.325v-22.1q0-1.35.95-2.325.95-.975 2.35-.975h5.45q1.35 0 2.325.975.975.975.975 2.325v22.1q0 1.35-.975 2.325-.975.975-2.325.975Zm-16.65 0q-1.35 0-2.325-.975-.975-.975-.975-2.325v-22.1q0-1.35.975-2.325.975-.975 2.325-.975h5.45q1.4 0 2.35.975.95.975.95 2.325v22.1q0 1.35-.95 2.325-.95.975-2.35.975Z"/></svg>

<svg xmlns="http://www.w3.org/2000/svg" height="48" width="48"><path d="M29.6 38.35Q28.2 38.35 27.25 37.375Q26.3 36.4 26.3 35.05V12.95Q26.3 11.6 27.25 10.625Q28.2 9.65 29.6 9.65H35.05Q36.4 9.65 37.375 10.625Q38.35 11.6 38.35 12.95V35.05Q38.35 36.4 37.375 37.375Q36.4 38.35 35.05 38.35ZM12.95 38.35Q11.6 38.35 10.625 37.375Q9.65 36.4 9.65 35.05V12.95Q9.65 11.6 10.625 10.625Q11.6 9.65 12.95 9.65H18.4Q19.8 9.65 20.75 10.625Q21.7 11.6 21.7 12.95V35.05Q21.7 36.4 20.75 37.375Q19.8 38.35 18.4 38.35Z"/></svg>
